X:319
T: AENNCHEN VON THARAU
N: B0376
O: Europa, Mitteleuropa, Deutschland
R: Liebes - Lied, Liebes - Lust
M: 3/4
L: 1/8
K: C
 | G,3A,G,2 | G,2C2
C2 | D3ED2 | C4z2 |
B,2B,2B,2 | D3CB,2 |
A,3B,A,2 | G,4z2 |
G,3A,G,2 | G,2C2
C2 | D3ED2 | C4z2 |
B,2B,2B,2 | D3CB,2 |
A,3B,A,2 | G,4z2 |
G,3G,A,2 | B,2G,2
A,2 | B,2B,2C2 | D4z2 |
C2D2E2 | F3ED2 |
C2D2B,2 | C4z2

@@@ Tune index: 2122
